images/404.svg

<?xml version="1.0" encoding="UTF-8" standalone="no"?>
<svg width="537px" height="287px" viewBox="0 0 537 287" version="1.1" xmlns="http://www.w3.org/2000/svg" xmlns:xlink="http://www.w3.org/1999/xlink" xmlns:sketch="http://www.bohemiancoding.com/sketch/ns">
    <!-- Generator: sketchtool 3.5.2 (25235) - http://www.bohemiancoding.com/sketch -->
    <title>404</title>
    <desc>Created with sketchtool.</desc>
    <defs></defs>
    <g id="redirect" stroke="none" stroke-width="1" fill="none" fill-rule="evenodd" sketch:type="MSPage">
        <g id="404" sketch:type="MSArtboardGroup" transform="translate(-678.000000, -159.000000)">
            <g id="text" sketch:type="MSLayerGroup" transform="translate(210.000000, 159.000000)">
                <g id="textos" transform="translate(468.000000, 0.000000)" sketch:type="MSShapeGroup">
                    <g id="404">
                        <path d="M147.207463,40.3562893 L78.0119403,40.3562893 L0.712437811,149.062107 L0.712437811,192.980503 L91.7263682,192.980503 L91.7263682,211.98066 L64.609204,211.98066 L64.609204,244.062893 L162.79204,244.062893 L162.79204,211.98066 L147.207463,211.98066 L147.207463,192.980503 L164.038806,192.980503 L164.038806,157.472013 L147.207463,157.472013 L147.207463,40.3562893 Z M91.7263682,157.472013 L42.1674129,157.472013 L91.1029851,83.9632075 L91.7263682,83.9632075 L91.7263682,157.472013 Z" id="4" fill="#373131"></path>
                        <path d="M519.456219,40.3562893 L450.260697,40.3562893 L372.961194,149.062107 L372.961194,192.980503 L463.975124,192.980503 L463.975124,211.98066 L436.85796,211.98066 L436.85796,244.062893 L535.040796,244.062893 L535.040796,211.98066 L519.456219,211.98066 L519.456219,192.980503 L536.287562,192.980503 L536.287562,157.472013 L519.456219,157.472013 L519.456219,40.3562893 Z M463.975124,157.472013 L414.416169,157.472013 L463.351741,83.9632075 L463.975124,83.9632075 L463.975124,157.472013 Z" id="4" fill="#373131"></path>
                        <path d="M269.483169,127.236504 C257.753161,127.236504 246.554787,118.424945 246.554787,106.142721 C246.554787,93.0559797 258.284509,83.4476441 270.818122,83.4476441 C282.547844,83.4476441 293.746505,92.2594902 293.746505,104.53856 C293.746505,117.625588 281.746529,127.236504 269.483169,127.236504 L269.483169,127.236504 Z M269.483169,204.137022 C257.753161,204.137022 246.554787,195.322308 246.554787,183.040371 C246.554787,170.223427 258.284509,160.615092 270.818122,160.615092 C282.547844,160.615092 293.746505,169.156854 293.746505,181.706294 C293.746505,194.520085 281.746529,204.137022 269.483169,204.137022 L269.483169,204.137022 Z M413.994761,143.480245 L394.829898,71.8730287 L342.491039,19.4561056 L270.995906,0.271259441 L199.503636,19.4561056 L147.153326,71.8730287 L127.999914,143.477378 L128.041712,143.632777 L127.999914,143.787889 L136.551858,175.75212 L140.048272,188.827679 L147.159051,215.401127 L153.764535,222.010728 L156.463069,224.716441 L178.751316,247.034777 L199.498196,267.809448 L223.066429,274.13463 L229.333522,275.819357 L243.882018,279.723245 L243.956739,279.743602 L260.244997,284.116553 L260.342907,284.13949 L270.995906,287.000029 L299.837818,279.260777 L300.056254,279.205728 L316.780813,274.715224 L317.05937,274.640679 L329.55548,271.288141 L329.558629,271.282406 L342.496765,267.812315 L369.205844,241.063399 L371.617233,238.65128 L379.060963,231.190714 L379.075277,231.181826 L390.503826,219.731071 L393.007113,217.223763 L394.835624,215.401127 L396.337195,209.780686 L396.888296,207.727819 L397.10931,206.885455 L397.114749,206.870833 L404.917482,177.710085 L411.425342,153.379022 L413.994761,143.787889 L413.953536,143.63421 L413.994761,143.480245 Z" id="symbol_he" fill="#FF4245"></path>
                    </g>
                </g>
            </g>
        </g>
    </g>
</svg>

<svg width="537" height="287" viewBox="0 0 537 287" xmlns="http://www.w3.org/2000/svg"><title>404</title><g fill="none" fill-rule="evenodd"><path d="M147.207 40.356H78.012L.712 149.062v43.92h91.014v19H64.61v32.08h98.182v-32.08h-15.585v-19h16.832v-35.51h-16.833V40.356zm-55.48 117.116h-49.56l48.936-73.51h.623v73.51zM519.456 40.356H450.26l-77.3 108.706v43.92h91.015v19h-27.117v32.08h98.183v-32.08h-15.584v-19h16.832v-35.51h-16.832V40.356zm-55.48 117.116h-49.56l48.936-73.51h.623v73.51z" fill="#373131"/><path d="M269.483 127.237c-11.73 0-22.928-8.812-22.928-21.094 0-13.087 11.73-22.695 24.263-22.695 11.73 0 22.93 8.81 22.93 21.09 0 13.088-12 22.7-24.265 22.7zm0 76.9c-11.73 0-22.928-8.815-22.928-21.097 0-12.817 11.73-22.425 24.263-22.425 11.73 0 22.93 8.542 22.93 21.09 0 12.815-12 22.432-24.265 22.432zm144.512-60.657L394.83 71.873l-52.34-52.417L270.997.27l-71.492 19.186-52.35 52.417L128 143.477l.042.156-.042.155 8.552 31.964 3.496 13.076 7.11 26.573 6.607 6.61 2.698 2.706 22.288 22.32 20.748 20.773 23.568 6.325 6.268 1.684 14.548 3.903.075.02 16.288 4.374.098.022 10.653 2.86 28.842-7.74.218-.054 16.725-4.49.28-.075 12.495-3.352.004-.006 12.937-3.47 26.71-26.75 2.41-2.41 7.444-7.46.015-.01 11.43-11.45 2.502-2.508 1.83-1.823 1.5-5.62.55-2.052.222-.843.005-.014 7.802-29.16 6.508-24.33 2.57-9.592-.04-.154.04-.154z" fill="#FF4245"/></g></svg>
